brandFactory_export/1.Light/Cinturon de seguridad _1Light.svg

<?xml version="1.0" encoding="UTF-8"?>
<svg width="24px" height="24px" viewBox="0 0 24 24" version="1.1" xmlns="http://www.w3.org/2000/svg" xmlns:xlink="http://www.w3.org/1999/xlink">
    <title>1.Light/Cinturon de seguridad _1Light</title>
    <g id="Symbols" stroke="none" stroke-width="1" fill="none" fill-rule="evenodd">
        <g id="1.Light/Cinturon-de-seguridad-_1Light" fill="#5CB615" fill-rule="nonzero">
            <path d="M19.0621849,22.4672269 L22.4336134,19.0957983 L20.3731092,17.0352941 C20.292437,16.9546218 20.2420168,16.8470588 20.2319328,16.7361345 L20,14.3529412 L17.3882353,11.7411765 L16.5378151,12.5915966 C16.3394958,12.7764706 16.0336134,12.7764706 15.8386555,12.5915966 L13.7815126,10.5277311 L10.410084,13.8991597 L12.4739496,15.9630252 C12.6655462,16.1546218 12.6655462,16.4672269 12.4739496,16.6588235 L11.6201681,17.512605 L14.2218487,20.1142857 L16.6789916,20.2588235 C16.8,20.2655462 16.9142857,20.3159664 16.9983193,20.4033613 L19.0621849,22.4672269 L19.0621849,22.4672269 Z M23.4789916,18.7462185 C23.6705882,18.9378151 23.6705882,19.2504202 23.4789916,19.4420168 L19.4151261,23.5092437 C19.2235294,23.7008403 18.9109244,23.7008403 18.7159664,23.5092437 L16.4436975,21.2302521 L13.9831933,21.0857143 C13.8621849,21.0789916 13.7478992,21.0285714 13.6638655,20.9411765 L10.5815126,17.8554622 C10.389916,17.6638655 10.389916,17.3512605 10.5815126,17.1596639 L11.4352941,16.3058824 L9.37142857,14.2420168 C9.17983193,14.0504202 9.17983193,13.7378151 9.37142857,13.5462185 L13.4386555,9.4789916 C13.6302521,9.28739496 13.9428571,9.28739496 14.1344538,9.4789916 L16.194958,11.5428571 L17.0453782,10.692437 C17.2369748,10.5008403 17.5495798,10.5008403 17.7411765,10.692437 L20.8235294,13.7781513 C20.9042017,13.8588235 20.9546218,13.9663866 20.9647059,14.0806723 L21.1932773,16.4605042 L23.4789916,18.7462185 L23.4789916,18.7462185 Z M10.7294118,6.68235294 C10.7394958,6.66890756 10.7529412,6.65546218 10.7630252,6.64201681 L11.6168067,5.78823529 L9.18991597,3.36134454 L6.81680672,3.2907563 C6.69243697,3.28739496 6.57142857,3.23361345 6.48067227,3.14621849 L4.55462185,1.22016807 L1.18991597,4.58823529 L3.11596639,6.51428571 C3.2,6.59831933 3.25042017,6.71260504 3.25714286,6.8302521 L3.41512605,9.12605042 L5.8487395,11.5596639 L6.69579832,10.712605 L10.7294118,6.68235294 Z M11.4957983,7.30084034 C11.4857143,7.31428571 11.4722689,7.32773109 11.4621849,7.34117647 L6.19495798,12.6016807 C6.00336134,12.7932773 5.69411765,12.7966387 5.50252101,12.605042 L5.49915966,12.6016807 L2.58823529,9.6907563 C2.50420168,9.60672269 2.45378151,9.49579832 2.44705882,9.37478992 L2.28571429,7.0789916 L0.144537815,4.93445378 C-0.0470588235,4.74285714 -0.0470588235,4.4302521 0.144537815,4.23865546 L4.20840336,0.171428571 C4.40336134,-0.0134453782 4.7092437,-0.0134453782 4.90420168,0.171428571 L7.03865546,2.3092437 L9.41176471,2.37983193 C9.53613445,2.38319328 9.65714286,2.43361345 9.74789916,2.52436975 L12.6588235,5.43865546 C12.8504202,5.6302521 12.8504202,5.94285714 12.6588235,6.13445378 L11.4957983,7.30084034 Z" id="Cinturon-de-seguridad-_1Light"></path>
        </g>
    </g>
</svg>

<svg width="24" height="24" viewBox="0 0 24 24" xmlns="http://www.w3.org/2000/svg"><path d="M19.062 22.467l3.372-3.371-2.06-2.06a.49.49 0 01-.142-.3L20 14.353l-2.612-2.612-.85.85a.51.51 0 01-.7 0l-2.056-2.063-3.372 3.371 2.064 2.064a.493.493 0 010 .696l-.854.854 2.602 2.601 2.457.145a.478.478 0 01.32.144l2.063 2.064zm4.417-3.72a.493.493 0 010 .695l-4.064 4.067a.497.497 0 01-.699 0l-2.272-2.279-2.46-.144a.478.478 0 01-.32-.145l-3.082-3.086a.493.493 0 010-.695l.853-.854-2.064-2.064a.493.493 0 010-.696L13.44 9.48a.493.493 0 01.695 0l2.061 2.064.85-.85a.493.493 0 01.696 0l3.083 3.085a.49.49 0 01.14.303l.23 2.38 2.285 2.285zM10.729 6.681l.034-.04.854-.854L9.19 3.361l-2.373-.07a.51.51 0 01-.336-.145L4.555 1.22 1.19 4.588l1.926 1.926a.49.49 0 01.141.316l.158 2.296L5.85 11.56l.847-.847 4.033-4.03zm.767.619l-.034.04-5.267 5.26a.489.489 0 01-.692.004l-.004-.003L2.59 9.69a.482.482 0 01-.142-.316l-.161-2.296L.145 4.934a.493.493 0 010-.695L4.208.17a.506.506 0 01.696 0L7.04 2.31l2.373.07a.494.494 0 01.336.145l2.91 2.915a.493.493 0 010 .695l-1.162 1.167z" fill="#5CB615" fill-rule="nonzero"/></svg>
